X:1
T:Killebukken
T:6. Killebukken
T:No. 39 i Læsebogen
T:Chr. Haslerud
T:Björnson
C:Chr. Haslerud
Z:Björnson
%%score [ 1 2 3 4 ]
L:1/8
Q:1/4=80
M:2/4
K:Ab
V:1 treble nm="Soprano"
V:2 treble nm="Alto"
V:3 treble-8 nm="Tenor"
V:4 bass nm="Bass"
V:1
!p!"^Lidt raskt" (3(FG) A (3(AG) F | G3/2 =E/ C2 | (3(FG) A (3A G F | G3/2 c/ c2 | %4
w: Kil- * le- buk- * ken,|lam- met mit!|Skjöndt _ det of- te gaar|tungt of stridt|
!f! (3e d c (3(cB) A | c2 B z |!mf! (3(fc) A (3c A F | A4 | G2 z2 |!pp! (3(GA) F (3G A F | G4 | %11
w: op ef- ter slet- * te|fjel- det,|fölg _ nu vak- kert din|bjel-|de,|fölg _ nu vak- kert din|bjel-|
 F2 z2 |] %12
w: de.|
V:2
!p! (3:2:2F2 F (3:2:2=E2 F | =E3/2 C/ C2 | (3:2:2C2 F (3=E E F | =E3/2 E/ E2 | %4
w: Kil- le- buk- ken,|lam- met mit!|Skjöndt det of- te gaar|tungt of stridt|
!f! (3A G A (3(AG) A | A2 G z |!mf! (3:2:2F2 F (3F F F | F3 =D | =E2 z2 |!pp! (3:2:2=E2 F (3C C C | %10
w: op ef- ter slet- * te|fjel- det,|fölg nu vak- kert din|bjel- *|de,|fölg nu vak- kert din|
 =E4 | C2 z2 |] %12
w: bjel-|de.|
V:3
!p! (3:2:2c2 c (3cB A | c3/2 G/ =E2 | (3:2:2c2 c (3c B A | c3/2 G/ G2 |!f! (3e e e (3(ed) c | %5
w: Kil- le- buk- * ken,|lam- met mit!|Skjöndt det of- te gaar|tungt of stridt|op ef- ter slet- * te|
 e2 e z |!mf! (3:2:2c2 c (3A A A | c3 =B | c2 z2 |!pp! (3:2:2c2 c (3_B B A | c2 B2 | A2 z2 |] %12
w: fjel- det,|fölg nu vak- kert din|bjel- *|de,|fölg nu vak- kert din|bjel- *|de.|
V:4
!p! (3:2:2A,2 F, (3:2:2C,2 D, | C,3/2 C,/ C,2 | (3:2:2A,2 F, (3C, C, D, | C,3/2 C,/ C,2 | %4
w: Kil- le- buk- ken,|lam- met mit!|Skjöndt det of- te gaar|tungt of stridt|
!f! (3C B, A, (3:2:2E,2 F, | E,2 E, z |!mf! (3:2:2A,2 F, (3A, A, D, | C,4 | C,2 z2 | %9
w: op ef- ter slet- te|fjel- det,|fölg nu vak- kert din|bjel-|de,|
!pp! (3:2:2B,2 A, (3=E, E, F, | C,4 | F,2 z2 |] %12
w: fölg nu vak- kert din|bjel-|de.|

